gamegear/art/logo.svg

<?xml version="1.0" encoding="utf-8"?>
<!-- Generator: Adobe Illustrator 16.0.3, SVG Export Plug-In . SVG Version: 6.00 Build 0)  -->
<!DOCTYPE svg PUBLIC "-//W3C//DTD SVG 1.1//EN" "http://www.w3.org/Graphics/SVG/1.1/DTD/svg11.dtd">
<svg version="1.1" id="Layer_1" xmlns:svg="http://www.w3.org/2000/svg"
	 xmlns="http://www.w3.org/2000/svg" xmlns:xlink="http://www.w3.org/1999/xlink" x="0px" y="0px" width="566.929px"
	 height="67.639px" viewBox="0 0 566.929 67.639" enable-background="new 0 0 566.929 67.639" xml:space="preserve">
<g>
	<g>
		<path id="path5" d="M213.297,56.3c-4.779,6.492-9.51,8.334-11.58,9.33c-2.068,0.998-5.201,1.779-7.941,1.779
			c-7.689,0-13.688-2.507-18-7.5c-4.314-5.016-6.469-12.047-6.469-21.165c0-10.782,2.719-19.923,8.182-27.471
			c5.459-7.523,12.701-11.273,21.725-11.273c6.846,0,12.445,1.922,16.828,5.789c4.383,3.844,6.564,9.891,6.564,18.117h-13.244
			c0-3.938-0.867-6.703-2.604-8.297c-1.732-1.57-4.219-2.367-7.477-2.367c-5.32,0-9.422,2.601-12.352,7.781
			c-2.906,5.204-4.385,11.109-4.385,17.742c0,4.524,0.963,8.229,2.838,11.086c1.898,2.885,4.732,4.313,8.508,4.313
			c3.938,0,6.984-1.125,9.188-3.353c2.18-2.202,3.797-5.063,4.828-8.556h-12.33l1.996-12h24.045l-2.039,11.625
			C219.581,41.885,218.057,49.808,213.297,56.3L213.297,56.3z"/>
		<polygon id="polygon9" points="327.629,1.666 316.872,65.84 305.293,65.84 314.411,16.104 294.299,65.84 284.809,65.84 
			280.426,16.127 273.508,65.84 261.792,65.84 272.5,1.666 288.934,1.666 292.614,46.855 311.083,1.547 		"/>
		<polygon id="polygon11" points="339.887,26.509 358.803,26.509 356.831,38.956 337.918,38.956 335.481,52.62 356.831,52.62 
			354.725,65.84 321.067,65.84 331.708,1.594 364.965,1.594 362.928,14.907 341.997,14.907 		"/>
		<path id="path13" d="M239.081,1.547L213.206,65.84h12.609l4.617-12.541h16.5l1.078,12.541h12.211l-7.313-64.292H239.081z
			 M234.44,42.331l9.377-25.571l2.178,25.571H234.44z"/>
	</g>
	<g>
		<path id="path5_1_" d="M430.284,56.3c-4.781,6.492-9.51,8.334-11.58,9.331c-2.068,0.997-5.201,1.779-7.941,1.779
			c-7.688,0-13.688-2.508-18-7.5c-4.314-5.016-6.471-12.046-6.471-21.164c0-10.782,2.721-19.923,8.182-27.471
			c5.461-7.523,12.703-11.273,21.727-11.273c6.844,0,12.445,1.922,16.828,5.789c4.385,3.845,6.563,9.893,6.563,18.118h-13.24
			c0-3.938-0.867-6.703-2.604-8.297c-1.732-1.569-4.219-2.367-7.477-2.367c-5.32,0-9.422,2.601-12.352,7.781
			c-2.908,5.204-4.383,11.109-4.383,17.743c0,4.523,0.961,8.228,2.834,11.085c1.9,2.885,4.734,4.313,8.51,4.313
			c3.938,0,6.984-1.125,9.188-3.352c2.18-2.203,3.797-5.063,4.83-8.556h-12.33l1.992-12h24.047l-2.039,11.625
			C436.567,41.885,435.042,49.808,430.284,56.3L430.284,56.3z"/>
		<polygon id="polygon15" points="454.991,26.532 473.879,26.532 471.936,38.956 453.02,38.956 450.561,52.62 471.936,52.62 
			469.827,65.862 436.168,65.862 446.809,1.594 480.069,1.594 478.03,14.906 457.098,14.906 		"/>
		<path id="path17" d="M496.801,1.572l-25.875,64.292h12.635l4.592-12.54h16.525l1.076,12.54h12.189l-7.314-64.292H496.801z
			 M492.184,42.33l9.354-25.572l2.203,25.572H492.184z"/>
		<path id="path19" d="M537.491,29.836l2.813-15.819h6.75c2.484,0,4.336,0.444,5.578,1.336c1.242,0.914,1.852,2.718,1.852,5.437
			c0,3.047-1.008,5.297-3,6.798c-2.018,1.5-4.57,2.249-7.664,2.249H537.491L537.491,29.836z M529.874,1.594l-10.641,64.268h12.303
			l4.127-24.493h5.695l9.516,24.493h14.109l-10.547-27.118c3.68-1.875,6.844-4.993,9.047-8.25c2.297-3.352,3.445-7.266,3.445-11.743
			c0-6.07-1.359-10.43-4.102-13.125c-2.719-2.694-6.588-4.031-11.555-4.031H529.874L529.874,1.594z"/>
	</g>
	<path id="path21" fill="#D61808" d="M10.274,26.281C21.131,8.071,36.077-3.295,43.657,0.855c7.564,4.168,4.898,22.308-5.979,40.506
		C26.819,59.572,11.875,70.936,4.313,66.784C-3.269,62.619-0.587,44.477,10.274,26.281z"/>
	<path id="path21_2_" fill="#008400" d="M58.846,26.281C69.704,8.071,84.649-3.295,92.227,0.855
		c7.564,4.168,4.898,22.308-5.979,40.506C75.391,59.572,60.446,70.936,52.883,66.784C45.303,62.619,47.985,44.477,58.846,26.281z"/>
	<path id="path21_3_" fill="#0000FF" d="M107.418,26.281c10.855-18.211,25.803-29.576,33.381-25.427
		c7.564,4.168,4.898,22.308-5.979,40.506c-10.859,18.211-25.801,29.575-33.365,25.423C93.874,62.619,96.557,44.477,107.418,26.281z"
		/>
</g>
</svg>

<?xml version="1.0" encoding="UTF-8" standalone="no"?>
<!DOCTYPE svg PUBLIC "-//W3C//DTD SVG 1.1//EN" "http://www.w3.org/Graphics/SVG/1.1/DTD/svg11.dtd">
<svg width="100%" height="100%" viewBox="0 0 571 71" version="1.1" xmlns="http://www.w3.org/2000/svg" xmlns:xlink="http://www.w3.org/1999/xlink" xml:space="preserve" xmlns:serif="http://www.serif.com/" style="fill-rule:evenodd;clip-rule:evenodd;stroke-linejoin:round;stroke-miterlimit:2;">
    <g id="Artboard1" transform="matrix(1.00371,0,0,1.02815,0.500914,0.514254)">
        <rect x="-0.499" y="-0.5" width="567.927" height="68.639" style="fill:none;"/>
        <g transform="matrix(0.996302,0,0,0.972621,0.740031,1.27976)">
            <g>
                <path id="path5" d="M213.297,56.3C208.518,62.792 203.787,64.634 201.717,65.63C199.649,66.628 196.516,67.409 193.776,67.409C186.087,67.409 180.088,64.902 175.776,59.909C171.462,54.893 169.307,47.862 169.307,38.744C169.307,27.962 172.026,18.821 177.489,11.273C182.948,3.75 190.19,0 199.214,0C206.06,0 211.659,1.922 216.042,5.789C220.425,9.633 222.606,15.68 222.606,23.906L209.362,23.906C209.362,19.968 208.495,17.203 206.758,15.609C205.026,14.039 202.539,13.242 199.281,13.242C193.961,13.242 189.859,15.843 186.929,21.023C184.023,26.227 182.544,32.132 182.544,38.765C182.544,43.289 183.507,46.994 185.382,49.851C187.28,52.736 190.114,54.164 193.89,54.164C197.828,54.164 200.874,53.039 203.078,50.811C205.258,48.609 206.875,45.748 207.906,42.255L195.576,42.255L197.572,30.255L221.617,30.255L219.578,41.88C219.581,41.885 218.057,49.808 213.297,56.3Z" style="fill-rule:nonzero;stroke:rgb(102,102,102);stroke-width:1px;"/>
                <path id="polygon9" d="M327.629,1.666L316.872,65.84L305.293,65.84L314.411,16.104L294.299,65.84L284.809,65.84L280.426,16.127L273.508,65.84L261.792,65.84L272.5,1.666L288.934,1.666L292.614,46.855L311.083,1.547L327.629,1.666Z" style="fill-rule:nonzero;stroke:rgb(102,102,102);stroke-width:1px;"/>
                <path id="polygon11" d="M339.887,26.509L358.803,26.509L356.831,38.956L337.918,38.956L335.481,52.62L356.831,52.62L354.725,65.84L321.067,65.84L331.708,1.594L364.965,1.594L362.928,14.907L341.997,14.907L339.887,26.509Z" style="fill-rule:nonzero;stroke:rgb(102,102,102);stroke-width:1px;"/>
                <path id="path13" d="M239.081,1.547L213.206,65.84L225.815,65.84L230.432,53.299L246.932,53.299L248.01,65.84L260.221,65.84L252.908,1.548L239.081,1.548L239.081,1.547ZM234.44,42.331L243.817,16.76L245.995,42.331L234.44,42.331Z" style="fill-rule:nonzero;stroke:rgb(102,102,102);stroke-width:1px;"/>
            </g>
            <g>
                <path id="path5_1_" d="M430.284,56.3C425.503,62.792 420.774,64.634 418.704,65.631C416.636,66.628 413.503,67.41 410.763,67.41C403.075,67.41 397.075,64.902 392.763,59.91C388.449,54.894 386.292,47.864 386.292,38.746C386.292,27.964 389.013,18.823 394.474,11.275C399.935,3.752 407.177,0.002 416.201,0.002C423.045,0.002 428.646,1.924 433.029,5.791C437.414,9.636 439.592,15.684 439.592,23.909L426.352,23.909C426.352,19.971 425.485,17.206 423.748,15.612C422.016,14.043 419.529,13.245 416.271,13.245C410.951,13.245 406.849,15.846 403.919,21.026C401.011,26.23 399.536,32.135 399.536,38.769C399.536,43.292 400.497,46.997 402.37,49.854C404.27,52.739 407.104,54.167 410.88,54.167C414.818,54.167 417.864,53.042 420.068,50.815C422.248,48.612 423.865,45.752 424.898,42.259L412.568,42.259L414.56,30.259L438.607,30.259L436.568,41.884C436.567,41.885 435.042,49.808 430.284,56.3Z" style="fill-rule:nonzero;stroke:rgb(102,102,102);stroke-width:1px;"/>
                <path id="polygon15" d="M454.991,26.532L473.879,26.532L471.936,38.956L453.02,38.956L450.561,52.62L471.936,52.62L469.827,65.862L436.168,65.862L446.809,1.594L480.069,1.594L478.03,14.906L457.098,14.906L454.991,26.532Z" style="fill-rule:nonzero;stroke:rgb(102,102,102);stroke-width:1px;"/>
                <path id="path17" d="M496.801,1.572L470.926,65.864L483.561,65.864L488.153,53.324L504.678,53.324L505.754,65.864L517.943,65.864L510.629,1.572L496.801,1.572ZM492.184,42.33L501.538,16.758L503.741,42.33L492.184,42.33Z" style="fill-rule:nonzero;stroke:rgb(102,102,102);stroke-width:1px;"/>
                <path id="path19" d="M537.491,29.836L540.304,14.017L547.054,14.017C549.538,14.017 551.39,14.461 552.632,15.353C553.874,16.267 554.484,18.071 554.484,20.79C554.484,23.837 553.476,26.087 551.484,27.588C549.466,29.088 546.914,29.837 543.82,29.837L537.491,29.837L537.491,29.836ZM529.874,1.594L519.233,65.862L531.536,65.862L535.663,41.369L541.358,41.369L550.874,65.862L564.983,65.862L554.436,38.744C558.116,36.869 561.28,33.751 563.483,30.494C565.78,27.142 566.928,23.228 566.928,18.751C566.928,12.681 565.569,8.321 562.826,5.626C560.107,2.932 556.238,1.595 551.271,1.595L529.874,1.595L529.874,1.594Z" style="fill-rule:nonzero;stroke:rgb(102,102,102);stroke-width:1px;"/>
            </g>
            <path id="path21" d="M10.274,26.281C21.131,8.071 36.077,-3.295 43.657,0.855C51.221,5.023 48.555,23.163 37.678,41.361C26.819,59.572 11.875,70.936 4.313,66.784C-3.269,62.619 -0.587,44.477 10.274,26.281Z" style="fill:rgb(214,24,8);fill-rule:nonzero;stroke:rgb(102,102,102);stroke-width:1px;"/>
            <path id="path21_2_" d="M58.846,26.281C69.704,8.071 84.649,-3.295 92.227,0.855C99.791,5.023 97.125,23.163 86.248,41.361C75.391,59.572 60.446,70.936 52.883,66.784C45.303,62.619 47.985,44.477 58.846,26.281Z" style="fill:rgb(0,132,0);fill-rule:nonzero;stroke:rgb(102,102,102);stroke-width:1px;"/>
            <path id="path21_3_" d="M107.418,26.281C118.273,8.07 133.221,-3.295 140.799,0.854C148.363,5.022 145.697,23.162 134.82,41.36C123.961,59.571 109.019,70.935 101.455,66.783C93.874,62.619 96.557,44.477 107.418,26.281Z" style="fill:rgb(0,0,255);fill-rule:nonzero;stroke:rgb(102,102,102);stroke-width:1px;"/>
        </g>
    </g>
</svg>
